assets/images/script/t-2-top.svg

<svg fill="none" height="159" viewBox="0 0 414 159" width="414" xmlns="http://www.w3.org/2000/svg"><g stroke="#000" stroke-linecap="round" stroke-width="5"><path d="m84.1587 139.967c-2.4244-2.155-.3869-.697 1.9328.297 13.0699 5.602 26.0095 9.861 40.3665 10.705 21.227 1.249 42.739-4.458 61.626-13.901 13.46-6.73 28.687-15.972 31.371-32.081 6.365-38.1848-68.112-33.7726-89.355-33.3182-42.1782.9022-84.2019 10.9214-123.10507 26.8363-20.29283 8.3019 37.26187-23.1201 56.05147-34.4189 43.1216-25.9301 89.2856-55.54541 140.6496-60.66051 18.429-1.8353 30.402 4.45539 38.805 21.26091 11.483 22.9662 16.76 47.5483 31.519 69.1352 14.418 21.0872 33.714 40.5652 55.754 53.6722 5.459 3.247 11.983 6.833 18.288 8.252 3.921.882 1.04-1.219 1.04-2.75"/><path d="m310.974 93.1045c13.89 0 27.172 13.9235 37.169 21.7065 19.212 14.96 38.857 30.966 63.188 35.832"/></g></svg>

<svg width="414" height="159" viewBox="0 0 414 159" fill="none" xmlns="http://www.w3.org/2000/svg">
<path d="M84.1587 139.967C81.7343 137.812 83.7718 139.27 86.0915 140.264C99.1614 145.866 112.101 150.125 126.458 150.969C147.685 152.218 169.197 146.511 188.084 137.068C201.544 130.338 216.771 121.096 219.455 104.987C225.82 66.8022 151.343 71.2144 130.1 71.6688C87.9218 72.571 45.8981 82.5902 6.99493 98.5051C-13.2979 106.807 44.2568 75.385 63.0464 64.0862C106.168 38.1561 152.332 8.54079 203.696 3.42569C222.125 1.59039 234.098 7.88108 242.501 24.6866C253.984 47.6528 259.261 72.2349 274.02 93.8218C288.438 114.909 307.734 134.387 329.774 147.494C335.233 150.741 341.757 154.327 348.062 155.746C351.983 156.628 349.102 154.527 349.102 152.996" stroke="black" stroke-width="5" stroke-linecap="round"/>
<path d="M310.974 93.1045C324.864 93.1045 338.146 107.028 348.143 114.811C367.355 129.771 387 145.777 411.331 150.643" stroke="black" stroke-width="5" stroke-linecap="round"/>
</svg>
